icons/uE9F4-network.svg

<svg xmlns="http://www.w3.org/2000/svg" viewBox="0 0 72 72">
  <path d="M64.6,7.88H49.75a1,1,0,0,0-1,1V14H43.64V8.88a1,1,0,0,0-1-1H27.79a1,1,0,0,0-1,1V14H14.59a1,1,0,0,0-1,1V29.91H7.23a1,1,0,0,0-1,1v12a1,1,0,0,0,1,1h6.41V46H10.77v1.64h7.7V46H15.64V43.91h6.44a1,1,0,0,0,1-1V38.24H30V55.12a1.5,1.5,0,0,0,1.5,1.5H44.83v3.31h-6.2v3H54v-3H47.83V56.62H61.22a1.5,1.5,0,0,0,1.5-1.5v-24a1.5,1.5,0,0,0-1.5-1.5H31.52a1.5,1.5,0,0,0-1.5,1.5v5.12H23.08V30.91a1,1,0,0,0-1-1H15.59V16h11.2v4.89a1,1,0,0,0,1,1h6.4V24H31.32v1.64H39V24H36.19V21.88h6.45a1,1,0,0,0,1-1V16h5.11v4.89a1,1,0,0,0,1,1h6.4V24H53.28v1.64H61V24H58.15V21.88H64.6a1,1,0,0,0,1-1v-12A1,1,0,0,0,64.6,7.88ZM33,32.62h26.7v21H33ZM21.08,41.91H8.23v-10H21.08Zm20.56-22H28.79v-10H41.64Zm22,0H50.75v-10H63.6Z" fill="gray"/>
</svg>

<?xml version="1.0" encoding="UTF-8"?>
<svg id="Layer_1" xmlns="http://www.w3.org/2000/svg" version="1.1" viewBox="0 0 72 72">
  <path d="M64.6,7.9h-14.8c-.6,0-1,.4-1,1v5.1h-5.1v-5.1c0-.6-.4-1-1-1h-14.8c-.6,0-1,.4-1,1v5.1h-12.2c-.6,0-1,.4-1,1v14.9h-6.4c-.6,0-1,.4-1,1v12c0,.6.4,1,1,1h6.4v2.1h-2.9v1.6h7.7v-1.6h-2.8v-2.1h6.4c.6,0,1-.4,1-1v-4.7h6.9v16.9c0,.8.7,1.5,1.5,1.5h13.3v3.3h-6.2v3h15.4v-3h-6.2v-3.3h13.4c.8,0,1.5-.7,1.5-1.5v-24c0-.8-.7-1.5-1.5-1.5h-29.7c-.8,0-1.5.7-1.5,1.5v5.1h-6.9v-5.3c0-.6-.4-1-1-1h-6.5v-13.9h11.2v4.9c0,.6.4,1,1,1h6.4v2.1h-2.9v1.6h7.7v-1.6h-2.8v-2.1h6.5c.6,0,1-.4,1-1v-4.9h5.1v4.9c0,.6.4,1,1,1h6.4v2.1h-2.9v1.6h7.7v-1.6h-2.8v-2.1h6.4c.6,0,1-.4,1-1v-12c0-.6-.4-1-1-1ZM33,32.6h26.7v21h-26.7v-21ZM21.1,41.9h-12.9v-10h12.9v10ZM41.6,19.9h-12.8v-10h12.8v10ZM63.6,19.9h-12.9v-10h12.8v10Z"/>
</svg>
